X:129
T:Evelyn's Bourree
M:3/8
L:1/8
C:Evelyne Girardon
R:Bourree
K:G
Bc |\
dgf | d>cd/e/ | =fec | de dc Bc | Bc | dgf | d>cd/e/ | =fec | d3 :|
|:\
dBG | A>GA/B/ | cBG | A/B/cB/c/ | dBG | A>GA/B/ |1 cBA | d3 :|2 cBA | G3 |] 
